pro/src/icons/full-show.svg

<svg width="48" height="48" viewBox="0 0 48 48" fill="none" xmlns="http://www.w3.org/2000/svg">
<path id="icon" fill-rule="evenodd" clip-rule="evenodd" d="M9.68149 31.5385C8.04967 30.0045 5.51309 27.565 4.60944 26.4652C4.15721 25.9148 3.80584 25.4589 3.56607 25.1385C3.44615 24.9783 3.35407 24.8518 3.29116 24.7643C3.2597 24.7205 3.23553 24.6864 3.21881 24.6627L3.19934 24.6349L3.19384 24.627L3.19157 24.6238C2.9361 24.2546 2.93616 23.7452 3.19166 23.3761L3.19231 23.3752L3.19421 23.3724L3.20047 23.3634L3.22279 23.3317C3.24199 23.3045 3.2698 23.2654 3.30602 23.2151C3.37844 23.1146 3.48452 22.9695 3.62257 22.7863C3.89861 22.4198 4.3029 21.9 4.82201 21.278C5.85913 20.0353 7.36036 18.3776 9.21841 16.7175C12.9079 13.4213 18.1338 10 24 10C29.8662 10 35.0921 13.4213 38.7816 16.7175C40.6397 18.3776 42.1409 20.0353 43.178 21.278C43.6971 21.9 44.1014 22.4198 44.3774 22.7863C44.5155 22.9695 44.6216 23.1146 44.694 23.2151C44.7302 23.2654 44.758 23.3045 44.7772 23.3317L44.7995 23.3634L44.8058 23.3724L44.8077 23.3752L44.8084 23.3761C45.0639 23.7452 45.0639 24.2548 44.8084 24.6239L44.8077 24.6248L44.8058 24.6276L44.7995 24.6366L44.7772 24.6683C44.758 24.6955 44.7302 24.7346 44.694 24.7849C44.6216 24.8854 44.5155 25.0305 44.3774 25.2137C44.1014 25.5802 43.6971 26.1 43.178 26.722C42.1409 27.9647 40.1765 29.8784 38.3184 31.5385C34.6289 34.8347 29.8662 38 24 38C18.0409 38 14.6882 35.4085 10.0824 31.8483L9.68149 31.5385ZM33 24C33 29.1922 28.9723 33 24 33C19.0277 33 15 28.9723 15 24C15 19.0277 19.5 15 24 15C28.5 15 33 18.8078 33 24ZM24 28.0001C26.0312 28.0001 27.7087 26.4862 27.9659 24.5253C27.5541 24.8239 27.0476 25 26.5 25C25.1193 25 24 23.8807 24 22.5C24 21.5128 24.5722 20.6593 25.403 20.2529C24.9664 20.0894 24.4937 20 24 20C21.7909 20 20 21.7909 20 24C20 26.2092 21.7909 28.0001 24 28.0001Z" fill="currentColor"/>
</svg>

<svg xmlns="http://www.w3.org/2000/svg" width="48" height="48" fill="none"><path id="icon" fill="currentColor" fill-rule="evenodd" d="M9.681 31.539c-1.631-1.535-4.168-3.974-5.072-5.074a38 38 0 0 1-1.318-1.7l-.072-.102-.02-.028-.005-.008-.002-.003a1.11 1.11 0 0 1 0-1.248l.002-.004.006-.009.023-.031.083-.117q.109-.152.317-.429c.276-.366.68-.886 1.199-1.508a44 44 0 0 1 4.396-4.56C12.908 13.42 18.134 10 24 10s11.092 3.421 14.782 6.718a44 44 0 0 1 5.595 6.068 25 25 0 0 1 .4.546l.023.031.006.01.002.002v.001c.256.37.256.879 0 1.248l-.002.004-.006.009-.023.031-.083.117q-.108.152-.317.429c-.276.366-.68.886-1.199 1.508-1.037 1.243-3.001 3.156-4.86 4.816C34.628 34.835 29.866 38 24 38c-5.96 0-9.312-2.592-13.918-6.152zM33 24c0 5.192-4.028 9-9 9s-9-4.028-9-9 4.5-9 9-9 9 3.808 9 9m-9 4a4 4 0 0 0 3.966-3.475 2.5 2.5 0 1 1-2.563-4.272A4 4 0 1 0 24 28" clip-rule="evenodd"/></svg>
